source/images/services/ico-1.svg

<svg height="24" viewBox="0 0 36 24" width="36" xmlns="http://www.w3.org/2000/svg" xmlns:xlink="http://www.w3.org/1999/xlink"><defs><path id="a" d="m10 1h14v9l-6 2 6 3v9h-14v-9l6-3-6-2z"/><mask id="b" fill="#fff" height="23" width="14" x="0" y="0"><use xlink:href="#a"/></mask></defs><g fill="none" fill-rule="evenodd"><path d="m-2-8h40v40h-40z"/><g stroke="#ee3660" stroke-linecap="round" transform="translate(1)"><use mask="url(#b)" stroke-linejoin="round" stroke-width="4" xlink:href="#a"/><g stroke-width="2"><path d="m9 1h16m-16 22h16" stroke-linejoin="round"/><path d="m29 8 4.5-1.5m-4.5 10.5 4.5 1.569m-28.5-1.569-4.5 1.5m4.5-10.5-4.5-1.569"/></g></g></g></svg>

<svg width="36" height="24" viewBox="0 0 36 24" xmlns="http://www.w3.org/2000/svg" xmlns:xlink="http://www.w3.org/1999/xlink"><title>573F3D02-89ED-4291-AA2D-75697E829471</title><defs><path id="a" d="M10 1h14v9l-6 2 6 3v9H10v-9l6-3-6-2z"/><mask id="b" x="0" y="0" width="14" height="23" fill="#fff"><use xlink:href="#a"/></mask></defs><g fill="none" fill-rule="evenodd"><path d="M-2-8h40v40H-2z"/><g transform="translate(1)" stroke="#EE3660" stroke-linecap="round"><use mask="url(#b)" stroke-width="4" stroke-linejoin="round" xlink:href="#a"/><path d="M9 1h16M9 23h16" stroke-width="2" stroke-linejoin="round"/><path d="M29 8l4.5-1.5M29 17l4.5 1.569M5 17L.5 18.5M5 8L.5 6.431" stroke-width="2"/></g></g></svg>
